dist/svg/atm-fill.svg

<svg xmlns="http://www.w3.org/2000/svg" viewBox="0 0 24 24"><path d="M6.617 2.283q-.873.101-1.552.781a2.74 2.74 0 0 0-.696 1.116l-.109.32v12l.109.32c.151.445.362.783.695 1.116s.673.544 1.116.694l.32.108 2.215.021 2.215.021.709 1.3c.389.715.77 1.366.845 1.446.254.272.667.293.985.05.185-.141.267-.317.267-.576.001-.214-.039-.292-1.362-2.72-1.743-3.198-1.584-2.873-1.606-3.271-.022-.404.049-.622.288-.883a1.09 1.09 0 0 1 1.564-.072c.148.136.319.43.96 1.644.429.812.829 1.53.89 1.595a.7.7 0 0 0 .526.227c.291 0 .482-.117.669-.409l.095-.149V8.838l.11.026c.781.181 1.657.912 2.064 1.722.057.114.144.339.194.5l.09.294.021 4.92c.019 4.547.026 4.929.09 5.045.323.591 1.211.504 1.389-.136.056-.202.057-9.213.001-9.709a4.79 4.79 0 0 0-3.726-4.142l-.227-.049-.015-1.405c-.015-1.397-.015-1.406-.122-1.724a2.7 2.7 0 0 0-.694-1.116c-.472-.471-.961-.709-1.606-.783-.419-.048-6.298-.046-6.712.002m5.203 3.043c.159.088.325.267.377.407.027.07.043.548.043 1.267s-.016 1.197-.043 1.267c-.06.16-.231.331-.417.417-.147.068-.287.074-1.78.074s-1.633-.006-1.78-.074c-.186-.086-.357-.257-.417-.417-.067-.177-.057-2.395.011-2.559.067-.16.31-.379.457-.411.06-.013.127-.03.149-.038s.769-.011 1.66-.007c1.425.007 1.634.016 1.74.074M9.24 7v.24h1.52v-.48H9.24z"/></svg>

<svg fill="none" xmlns="http://www.w3.org/2000/svg" viewBox="0 0 24 24"><path d="M6.617 2.283 C 6.034 2.351,5.519 2.610,5.065 3.064 C 4.732 3.396,4.521 3.735,4.369 4.180 L 4.260 4.500 4.260 10.500 L 4.260 16.500 4.369 16.820 C 4.520 17.265,4.731 17.603,5.064 17.936 C 5.397 18.269,5.737 18.480,6.180 18.630 L 6.500 18.738 8.715 18.759 L 10.930 18.780 11.639 20.080 C 12.028 20.795,12.409 21.446,12.484 21.526 C 12.738 21.798,13.151 21.819,13.469 21.576 C 13.654 21.435,13.736 21.259,13.736 21.000 C 13.737 20.786,13.697 20.708,12.374 18.280 C 10.631 15.082,10.790 15.407,10.768 15.009 C 10.746 14.605,10.817 14.387,11.056 14.126 C 11.479 13.665,12.166 13.634,12.620 14.054 C 12.768 14.190,12.939 14.484,13.580 15.698 C 14.009 16.510,14.409 17.228,14.470 17.293 C 14.609 17.441,14.793 17.520,14.996 17.520 C 15.287 17.520,15.478 17.403,15.665 17.111 L 15.760 16.962 15.760 12.900 L 15.760 8.838 15.870 8.864 C 16.651 9.045,17.527 9.776,17.934 10.586 C 17.991 10.700,18.078 10.925,18.128 11.086 L 18.218 11.380 18.239 16.300 C 18.258 20.847,18.265 21.229,18.329 21.345 C 18.652 21.936,19.540 21.849,19.718 21.209 C 19.774 21.007,19.775 11.996,19.719 11.500 C 19.488 9.463,17.985 7.792,15.993 7.358 L 15.766 7.309 15.751 5.904 C 15.736 4.507,15.736 4.498,15.629 4.180 C 15.481 3.737,15.270 3.398,14.935 3.064 C 14.463 2.593,13.974 2.355,13.329 2.281 C 12.910 2.233,7.031 2.235,6.617 2.283 M11.820 5.326 C 11.979 5.414,12.145 5.593,12.197 5.733 C 12.224 5.803,12.240 6.281,12.240 7.000 C 12.240 7.719,12.224 8.197,12.197 8.267 C 12.137 8.427,11.966 8.598,11.780 8.684 C 11.633 8.752,11.493 8.758,10.000 8.758 C 8.507 8.758,8.367 8.752,8.220 8.684 C 8.034 8.598,7.863 8.427,7.803 8.267 C 7.736 8.090,7.746 5.872,7.814 5.708 C 7.881 5.548,8.124 5.329,8.271 5.297 C 8.331 5.284,8.398 5.267,8.420 5.259 C 8.442 5.251,9.189 5.248,10.080 5.252 C 11.505 5.259,11.714 5.268,11.820 5.326 M9.240 7.000 L 9.240 7.240 10.000 7.240 L 10.760 7.240 10.760 7.000 L 10.760 6.760 10.000 6.760 L 9.240 6.760 9.240 7.000 " stroke="none" fill-rule="evenodd"/></svg>
